X: 8
T:Fot Is Wrong With My Telly
M:4/4
L:1/8
Q:120
C:Robert Davidson
K:D
"D"f2ff ff ed|"A"ee fg-g2 aa|aa aa aa ag|"D"ff ga-a3a|!
aa aa af2f|"G"gg ab-b2 bb|"A"aa aa aa aa|zg fe "D"d3z:||
